communes/5557.svg

<?xml version="1.0" encoding="UTF-8" standalone="no"?>
<svg
   xmlns:dc="http://purl.org/dc/elements/1.1/"
   xmlns:cc="http://creativecommons.org/ns#"
   xmlns:rdf="http://www.w3.org/1999/02/22-rdf-syntax-ns#"
   xmlns:svg="http://www.w3.org/2000/svg"
   xmlns="http://www.w3.org/2000/svg"
   xmlns:xlink="http://www.w3.org/1999/xlink"
   xmlns:sodipodi="http://sodipodi.sourceforge.net/DTD/sodipodi-0.dtd"
   xmlns:inkscape="http://www.inkscape.org/namespaces/inkscape"
   height="763"
   width="603"
   version="1.0"
   id="svg20"
   sodipodi:version="0.32"
   inkscape:version="0.46"
   sodipodi:docname="Fontaine-sur-Grandson-coat_of_arms.svg"
   sodipodi:docbase="C:\Documents and Settings\Steve\Bureau\Blason Villages Suisse pour Wikipédia (par Delta-9)"
   inkscape:output_extension="org.inkscape.output.svg.inkscape">
  <metadata
     id="metadata31">
    <rdf:RDF>
      <cc:Work
         rdf:about="">
        <dc:format>image/svg+xml</dc:format>
        <dc:type
           rdf:resource="http://purl.org/dc/dcmitype/StillImage" />
        <dc:date>07-AUG-2006</dc:date>
        <dc:creator>
          <cc:Agent>
            <dc:title>Jérôme BLUM (wagner51)</dc:title>
          </cc:Agent>
        </dc:creator>
        <cc:license
           rdf:resource="http://creativecommons.org/licenses/GPL/2.0/" />
        <dc:coverage />
        <dc:description>Gabarit pour le Projet:Blasons de WIkipédia</dc:description>
        <dc:subject>
          <rdf:Bag>
            <rdf:li>blason suisse modèle gabarit projet blasons</rdf:li>
          </rdf:Bag>
        </dc:subject>
        <dc:language>fr</dc:language>
        <dc:title>Gabrit d'un blason suisse</dc:title>
      </cc:Work>
      <cc:License
         rdf:about="http://creativecommons.org/licenses/GPL/2.0/">
        <cc:permits
           rdf:resource="http://web.resource.org/cc/Reproduction" />
        <cc:permits
           rdf:resource="http://web.resource.org/cc/Distribution" />
        <cc:requires
           rdf:resource="http://web.resource.org/cc/Notice" />
        <cc:permits
           rdf:resource="http://web.resource.org/cc/DerivativeWorks" />
        <cc:requires
           rdf:resource="http://web.resource.org/cc/ShareAlike" />
        <cc:requires
           rdf:resource="http://web.resource.org/cc/SourceCode" />
      </cc:License>
    </rdf:RDF>
  </metadata>
  <defs
     id="defs29"><inkscape:perspective
   sodipodi:type="inkscape:persp3d"
   inkscape:vp_x="0 : 381.5 : 1"
   inkscape:vp_y="0 : 1000 : 0"
   inkscape:vp_z="603 : 381.5 : 1"
   inkscape:persp3d-origin="301.5 : 254.33333 : 1"
   id="perspective28" />
<linearGradient
   id="linearGradient2893">
  <stop
     style="stop-color:#ffffff;stop-opacity:0.3137255;"
     offset="0"
     id="stop2895" />
  <stop
     id="stop2897"
     offset="0.19"
     style="stop-color:#ffffff;stop-opacity:0.25098041;" />
  <stop
     style="stop-color:#6b6b6b;stop-opacity:0.1254902;"
     offset="0.60000002"
     id="stop2901" />
  <stop
     style="stop-color:#000000;stop-opacity:0.1254902;"
     offset="1"
     id="stop2899" />
</linearGradient>
<linearGradient
   id="linearGradient2955">
  <stop
     style="stop-color:white;stop-opacity:0;"
     offset="0"
     id="stop2965" />
  <stop
     style="stop-color:black;stop-opacity:0.64583331;"
     offset="1"
     id="stop2959" />
</linearGradient>
<radialGradient
   inkscape:collect="always"
   xlink:href="#linearGradient2893"
   id="radialGradient3236"
   gradientUnits="userSpaceOnUse"
   gradientTransform="matrix(1.215027,1.531577e-24,1.464684e-23,1.266667,-839.1924,-490.4894)"
   cx="858.04236"
   cy="579.93323"
   fx="858.04236"
   fy="579.93323"
   r="300" />
<inkscape:perspective
   id="perspective2564"
   inkscape:persp3d-origin="297.63751 : 280.63 : 1"
   inkscape:vp_z="595.27502 : 420.94501 : 1"
   inkscape:vp_y="0 : 1000 : 0"
   inkscape:vp_x="0 : 420.94501 : 1"
   sodipodi:type="inkscape:persp3d" />

	
	
	

	
	

		
		
		
		
		
		
		
		
		
		
		
		
		
		
		
		
		
		
	
		
		
		
		
	
		
		
	</defs>
  <sodipodi:namedview
     inkscape:window-height="968"
     inkscape:window-width="1280"
     inkscape:pageshadow="2"
     inkscape:pageopacity="0.0"
     guidetolerance="10.0"
     gridtolerance="10.0"
     objecttolerance="10.0"
     borderopacity="1.0"
     bordercolor="#666666"
     pagecolor="#ffffff"
     id="base"
     inkscape:zoom="0.72527578"
     inkscape:cx="303.48957"
     inkscape:cy="321.82116"
     inkscape:window-x="1280"
     inkscape:window-y="22"
     inkscape:current-layer="layer2"
     showgrid="false"
     showguides="true"
     inkscape:guide-bbox="true">
    <sodipodi:guide
       orientation="horizontal"
       position="761.5"
       id="guide1885" />
    <sodipodi:guide
       orientation="vertical"
       position="1.5"
       id="guide1887" />
    <sodipodi:guide
       orientation="horizontal"
       position="1.5"
       id="guide1889" />
    <sodipodi:guide
       orientation="vertical"
       position="601.5"
       id="guide1891" />
    <sodipodi:guide
       orientation="vertical"
       position="301.50081"
       id="guide1893" />
  </sodipodi:namedview>
  <desc
     id="desc22">Coat of Arms of Canton of Freiburg (Fribourg)</desc>
  <g
     inkscape:groupmode="layer"
     id="layer1"
     inkscape:label="Fond écu"
     style="opacity:1"
     sodipodi:insensitive="true">
    <path
       id="path1899"
       d="M 1.5,1.49998 L 1.5,460.3679 C 1.5,626.6785 135.81456,761.5 301.49999,761.5 C 467.18543,761.5 601.5,626.6785 601.5,460.3679 L 601.5,1.49998 L 1.5,1.49998 z"
       style="fill:#ffffff;fill-opacity:1" />
    <rect
       height="249.688"
       width="600"
       y="1.5"
       x="1.5"
       id="rect5998"
       style="opacity:1;fill:#fcef3c" />
  </g>
  <g
     inkscape:groupmode="layer"
     id="layer2"
     inkscape:label="Meubles"
     style="opacity:1;display:inline"
     sodipodi:insensitive="true">
    <g
       id="g2723">
      <path
         id="path2511"
         d="M 585.499,361.931 C 585.499,306.559 557.445,306.559 557.445,251.188 L 480.309,251.188 C 480.309,306.559 508.365,306.559 508.365,361.931 C 508.365,417.304 480.311,417.304 480.311,472.673 C 480.311,528.044 508.365,528.044 508.365,583.413 C 508.365,638.786 480.313,638.786 480.313,694.155 C 480.313,696.913 480.385,699.527 480.517,702.023 C 527.397,666.975 563.721,618.505 583.864,562.284 C 577.873,526.86 557.447,519.924 557.447,472.673 C 557.447,417.304 585.499,417.304 585.499,361.931 z M 403.178,472.673 C 403.178,417.303 431.23,417.303 431.23,361.931 C 431.23,306.559 403.176,306.559 403.176,251.188 L 326.039,251.188 C 326.039,306.559 354.094,306.559 354.094,361.931 C 354.094,417.304 326.041,417.304 326.041,472.673 C 326.041,528.044 354.095,528.044 354.095,583.413 C 354.095,638.786 326.043,638.786 326.043,694.155 C 326.043,727.678 336.325,740.907 344.439,758.415 C 368.173,755 391.012,748.807 412.613,740.156 C 407.425,728.855 403.179,715.695 403.179,694.155 C 403.179,638.786 431.231,638.786 431.231,583.413 C 431.232,528.044 403.178,528.044 403.178,472.673 z M 122.689,361.931 C 122.689,306.559 94.633997,306.559 94.633997,251.188 L 17.499997,251.188 C 17.499997,306.559 45.553997,306.559 45.553997,361.931 C 45.553997,417.304 17.501997,417.304 17.501997,472.673 C 17.501997,528.044 45.555997,528.044 45.555997,583.413 C 45.555997,595.098 44.303997,604.309 42.332997,612.103 C 56.803997,636.953 74.712997,659.536 95.417997,679.189 C 99.938997,638.247 122.69,633.284 122.69,583.413 C 122.69,528.044 94.635997,528.044 94.635997,472.673 C 94.635997,417.304 122.689,417.304 122.689,361.931 z M 248.906,472.673 C 248.906,417.303 276.959,417.303 276.959,361.931 C 276.959,306.559 248.904,306.559 248.904,251.188 L 171.769,251.188 C 171.769,306.559 199.824,306.559 199.824,361.931 C 199.824,417.304 171.771,417.304 171.771,472.673 C 171.771,528.044 199.825,528.044 199.825,583.413 C 199.825,638.786 171.773,638.786 171.773,694.155 C 171.773,712.739 174.935,725.083 179.134,735.38 C 206.748,747.778 236.572,756.098 267.848,759.603 C 259.657,741.493 248.908,728.432 248.908,694.156 C 248.908,638.787 276.961,638.787 276.961,583.414 C 276.961,528.044 248.906,528.044 248.906,472.673 z"
         style="fill:#2b5df2" />
      <path
         id="path2513"
         d="M 583.864,562.285 C 577.873,526.861 557.447,519.925 557.447,472.674 C 557.447,417.304 585.499,417.304 585.499,361.932 C 585.499,306.56 557.445,306.56 557.445,251.189 M 480.31,251.188 C 480.31,306.559 508.366,306.559 508.366,361.931 C 508.366,417.304 480.312,417.304 480.312,472.673 C 480.312,528.044 508.366,528.044 508.366,583.413 C 508.366,638.786 480.314,638.786 480.314,694.155 C 480.314,696.913 480.386,699.527 480.518,702.023 M 412.613,740.157 C 407.425,728.856 403.179,715.696 403.179,694.156 C 403.179,638.787 431.231,638.787 431.231,583.414 C 431.231,528.045 403.177,528.045 403.177,472.674 C 403.177,417.304 431.229,417.304 431.229,361.932 C 431.229,306.56 403.175,306.56 403.175,251.189 M 326.039,251.188 C 326.039,306.559 354.094,306.559 354.094,361.931 C 354.094,417.304 326.041,417.304 326.041,472.673 C 326.041,528.044 354.095,528.044 354.095,583.413 C 354.095,638.786 326.043,638.786 326.043,694.155 C 326.043,727.678 336.325,740.907 344.439,758.415 M 95.417997,679.19 C 99.938997,638.248 122.69,633.285 122.69,583.414 C 122.69,528.045 94.635997,528.045 94.635997,472.674 C 94.635997,417.304 122.689,417.304 122.689,361.932 C 122.689,306.56 94.633997,306.56 94.633997,251.189 M 17.499997,251.188 C 17.499997,306.559 45.553997,306.559 45.553997,361.931 C 45.553997,417.304 17.501997,417.304 17.501997,472.673 C 17.501997,528.044 45.555997,528.044 45.555997,583.413 C 45.555997,595.098 44.303997,604.309 42.332997,612.103 M 267.849,759.603 C 259.658,741.493 248.909,728.432 248.909,694.156 C 248.909,638.787 276.962,638.787 276.962,583.414 C 276.962,528.045 248.907,528.045 248.907,472.674 C 248.907,417.304 276.96,417.304 276.96,361.932 C 276.96,306.56 248.905,306.56 248.905,251.189 M 171.77,251.188 C 171.77,306.559 199.825,306.559 199.825,361.931 C 199.825,417.304 171.772,417.304 171.772,472.673 C 171.772,528.044 199.826,528.044 199.826,583.413 C 199.826,638.786 171.774,638.786 171.774,694.155 C 171.774,712.739 174.936,725.083 179.135,735.38"
         style="fill:none;stroke:#000000;stroke-width:3" />
    </g>
    <g
       id="g2699">
      <line
         y2="251.188"
         x2="601.49695"
         y1="251.188"
         x1="1.5"
         id="line2592"
         style="fill:none;stroke:#000000;stroke-width:3" />
      <line
         y2="188.76601"
         x2="601.49695"
         y1="188.76601"
         x1="1.5"
         id="line2592_1_"
         style="fill:none;stroke:#000000;stroke-width:3" />
      <line
         y2="126.34399"
         x2="601.49695"
         y1="126.34399"
         x1="1.5"
         id="line2592_2_"
         style="fill:none;stroke:#000000;stroke-width:3" />
      <line
         y2="63.921997"
         x2="601.49695"
         y1="63.921997"
         x1="1.5"
         id="line2592_3_"
         style="fill:none;stroke:#000000;stroke-width:3" />
      <line
         id="line2523"
         y2="188.76601"
         x2="121.5"
         y1="251.188"
         x1="121.5"
         style="fill:none;stroke:#000000;stroke-width:3" />
      <line
         id="line2525"
         y2="251.188"
         x2="241.49899"
         y1="188.76601"
         x1="241.49899"
         style="fill:none;stroke:#000000;stroke-width:3" />
      <line
         id="line2527"
         y2="251.188"
         x2="361.49896"
         y1="188.76601"
         x1="361.49896"
         style="fill:none;stroke:#000000;stroke-width:3" />
      <line
         id="line2529"
         y2="251.188"
         x2="481.49899"
         y1="188.76601"
         x1="481.49899"
         style="fill:none;stroke:#000000;stroke-width:3" />
      <line
         id="line2531"
         y2="126.34399"
         x2="61.499992"
         y1="188.767"
         x1="61.499992"
         style="fill:none;stroke:#000000;stroke-width:3" />
      <line
         id="line2533"
         y2="188.767"
         x2="181.49899"
         y1="126.34399"
         x1="181.49899"
         style="fill:none;stroke:#000000;stroke-width:3" />
      <line
         id="line2535"
         y2="188.767"
         x2="301.49896"
         y1="126.34399"
         x1="301.49896"
         style="fill:none;stroke:#000000;stroke-width:3" />
      <line
         id="line2537"
         y2="188.767"
         x2="421.49899"
         y1="126.34399"
         x1="421.49899"
         style="fill:none;stroke:#000000;stroke-width:3" />
      <line
         id="line2539"
         y2="188.767"
         x2="541.49902"
         y1="126.34399"
         x1="541.49902"
         style="fill:none;stroke:#000000;stroke-width:3" />
      <line
         id="line2541"
         y2="63.921997"
         x2="121.5"
         y1="126.34399"
         x1="121.5"
         style="fill:none;stroke:#000000;stroke-width:3" />
      <line
         id="line2543"
         y2="126.34399"
         x2="241.49899"
         y1="63.921997"
         x1="241.49899"
         style="fill:none;stroke:#000000;stroke-width:3" />
      <line
         id="line2545"
         y2="126.34399"
         x2="361.49896"
         y1="63.921997"
         x1="361.49896"
         style="fill:none;stroke:#000000;stroke-width:3" />
      <line
         id="line2547"
         y2="126.34399"
         x2="481.49899"
         y1="63.921997"
         x1="481.49899"
         style="fill:none;stroke:#000000;stroke-width:3" />
      <line
         id="line2549"
         y2="1.5"
         x2="61.499992"
         y1="63.921997"
         x1="61.499992"
         style="fill:none;stroke:#000000;stroke-width:3" />
      <line
         id="line2551"
         y2="63.921997"
         x2="181.49899"
         y1="1.5"
         x1="181.49899"
         style="fill:none;stroke:#000000;stroke-width:3" />
      <line
         id="line2553"
         y2="63.921997"
         x2="301.49896"
         y1="1.5"
         x1="301.49896"
         style="fill:none;stroke:#000000;stroke-width:3" />
      <line
         id="line2555"
         y2="63.921997"
         x2="421.49899"
         y1="1.5"
         x1="421.49899"
         style="fill:none;stroke:#000000;stroke-width:3" />
      <line
         id="line2557"
         y2="63.921997"
         x2="541.49902"
         y1="1.5"
         x1="541.49902"
         style="fill:none;stroke:#000000;stroke-width:3" />
    </g>
  </g>
  <g
     inkscape:groupmode="layer"
     id="layer3"
     inkscape:label="Reflet final"
     style="display:inline"
     sodipodi:insensitive="true">
    <path
       style="fill:url(#radialGradient3236);fill-opacity:1"
       d="M 1.5,1.5 L 1.5,460.3679 C 1.5,626.67854 135.81454,761.5 301.49993,761.5 C 467.1854,761.5 601.5,626.67854 601.5,460.3679 L 601.5,1.5 L 1.5,1.5 z "
       id="path2346" />
  </g>
  <g
     inkscape:groupmode="layer"
     id="layer4"
     inkscape:label="Contour final"
     style="display:inline"
     sodipodi:insensitive="true">
    <path
       style="fill:none;fill-opacity:1;stroke:#000000;stroke-width:3;stroke-miterlimit:4;stroke-dasharray:none;stroke-opacity:1"
       d="M 1.5,1.5 L 1.5,460.36794 C 1.5,626.67854 135.81454,761.5 301.49993,761.5 C 467.1854,761.5 601.5,626.67854 601.5,460.36794 L 601.5,1.5 L 1.5,1.5 z"
       id="path3239" />
  </g>
</svg>

<?xml version="1.0" encoding="UTF-8"?>
<svg version="1.0" viewBox="0 0 603 763" xmlns="http://www.w3.org/2000/svg" xmlns:cc="http://creativecommons.org/ns#" xmlns:dc="http://purl.org/dc/elements/1.1/" xmlns:rdf="http://www.w3.org/1999/02/22-rdf-syntax-ns#" xmlns:xlink="http://www.w3.org/1999/xlink">
<metadata>
<rdf:RDF>
<cc:Work rdf:about="">
<dc:format>image/svg+xml</dc:format>
<dc:type rdf:resource="http://purl.org/dc/dcmitype/StillImage"/>
<dc:date>07-AUG-2006</dc:date>
<dc:creator>
<cc:Agent>
<dc:title>Jérôme BLUM (wagner51)</dc:title>
</cc:Agent>
</dc:creator>
<cc:license rdf:resource="http://creativecommons.org/licenses/GPL/2.0/"/>
<dc:coverage/>
<dc:description>Gabarit pour le Projet:Blasons de WIkipédia</dc:description>
<dc:subject>
<rdf:Bag>
<rdf:li>blason suisse modèle gabarit projet blasons</rdf:li>
</rdf:Bag>
</dc:subject>
<dc:language>fr</dc:language>
<dc:title>Gabrit d'un blason suisse</dc:title>
</cc:Work>
<cc:License rdf:about="http://creativecommons.org/licenses/GPL/2.0/">
<cc:permits rdf:resource="http://web.resource.org/cc/Reproduction"/>
<cc:permits rdf:resource="http://web.resource.org/cc/Distribution"/>
<cc:requires rdf:resource="http://web.resource.org/cc/Notice"/>
<cc:permits rdf:resource="http://web.resource.org/cc/DerivativeWorks"/>
<cc:requires rdf:resource="http://web.resource.org/cc/ShareAlike"/>
<cc:requires rdf:resource="http://web.resource.org/cc/SourceCode"/>
</cc:License>
</rdf:RDF>
</metadata>
<defs>
<radialGradient id="a" cx="858.04" cy="579.93" r="300" gradientTransform="matrix(1.215 1.5316e-24 1.4647e-23 1.2667 -839.19 -490.49)" gradientUnits="userSpaceOnUse">
<stop stop-color="#fff" stop-opacity=".31373" offset="0"/>
<stop stop-color="#fff" stop-opacity=".25098" offset=".19"/>
<stop stop-color="#6b6b6b" stop-opacity=".12549" offset=".6"/>
<stop stop-opacity=".12549" offset="1"/>
</radialGradient>
</defs>
<desc>Coat of Arms of Canton of Freiburg (Fribourg)</desc>
<g>
<path d="m1.5 1.5v458.87c0 166.31 134.31 301.13 300 301.13 165.69 0 300-134.82 300-301.13v-458.87h-600z" fill="#fff"/>
<rect x="1.5" y="1.5" width="600" height="249.69" fill="#fcef3c"/>
</g>
<g>
<path d="m585.5 361.93c0-55.372-28.054-55.372-28.054-110.74h-77.136c0 55.371 28.056 55.371 28.056 110.74 0 55.373-28.054 55.373-28.054 110.74 0 55.371 28.054 55.371 28.054 110.74 0 55.373-28.052 55.373-28.052 110.74 0 2.758 0.072 5.372 0.204 7.868 46.88-35.048 83.204-83.518 103.35-139.74-5.991-35.424-26.417-42.36-26.417-89.611 0-55.369 28.052-55.369 28.052-110.74zm-182.32 110.74c0-55.37 28.052-55.37 28.052-110.74s-28.054-55.372-28.054-110.74h-77.137c0 55.371 28.055 55.371 28.055 110.74 0 55.373-28.053 55.373-28.053 110.74 0 55.371 28.054 55.371 28.054 110.74 0 55.373-28.052 55.373-28.052 110.74 0 33.523 10.282 46.752 18.396 64.26 23.734-3.415 46.573-9.608 68.174-18.259-5.188-11.301-9.434-24.461-9.434-46.001 0-55.369 28.052-55.369 28.052-110.74 1e-3 -55.369-28.053-55.369-28.053-110.74zm-280.49-110.74c0-55.372-28.055-55.372-28.055-110.74h-77.134c0 55.371 28.054 55.371 28.054 110.74 0 55.373-28.052 55.373-28.052 110.74 0 55.371 28.054 55.371 28.054 110.74 0 11.685-1.252 20.896-3.223 28.69 14.471 24.85 32.38 47.433 53.085 67.086 4.521-40.942 27.272-45.905 27.272-95.776 0-55.369-28.054-55.369-28.054-110.74 0-55.369 28.053-55.369 28.053-110.74zm126.22 110.74c0-55.37 28.053-55.37 28.053-110.74s-28.055-55.372-28.055-110.74h-77.135c0 55.371 28.055 55.371 28.055 110.74 0 55.373-28.053 55.373-28.053 110.74 0 55.371 28.054 55.371 28.054 110.74 0 55.373-28.052 55.373-28.052 110.74 0 18.584 3.162 30.928 7.361 41.225 27.614 12.398 57.438 20.718 88.714 24.223-8.191-18.11-18.94-31.171-18.94-65.447 0-55.369 28.053-55.369 28.053-110.74 0-55.37-28.055-55.37-28.055-110.74z" fill="#2b5df2"/>
<path d="m583.86 562.28c-5.991-35.424-26.417-42.36-26.417-89.611 0-55.37 28.052-55.37 28.052-110.74s-28.054-55.372-28.054-110.74m-77.135-1e-3c0 55.371 28.056 55.371 28.056 110.74 0 55.373-28.054 55.373-28.054 110.74 0 55.371 28.054 55.371 28.054 110.74 0 55.373-28.052 55.373-28.052 110.74 0 2.758 0.072 5.372 0.204 7.868m-67.905 38.134c-5.188-11.301-9.434-24.461-9.434-46.001 0-55.369 28.052-55.369 28.052-110.74 0-55.369-28.054-55.369-28.054-110.74 0-55.37 28.052-55.37 28.052-110.74s-28.054-55.372-28.054-110.74m-77.136-1e-3c0 55.371 28.055 55.371 28.055 110.74 0 55.373-28.053 55.373-28.053 110.74 0 55.371 28.054 55.371 28.054 110.74 0 55.373-28.052 55.373-28.052 110.74 0 33.523 10.282 46.752 18.396 64.26m-249.02-79.225c4.521-40.942 27.272-45.905 27.272-95.776 0-55.369-28.054-55.369-28.054-110.74 0-55.37 28.053-55.37 28.053-110.74s-28.055-55.372-28.055-110.74m-77.134-1e-3c0 55.371 28.054 55.371 28.054 110.74 0 55.373-28.052 55.373-28.052 110.74 0 55.371 28.054 55.371 28.054 110.74 0 11.685-1.252 20.896-3.223 28.69m225.52 147.5c-8.191-18.11-18.94-31.171-18.94-65.447 0-55.369 28.053-55.369 28.053-110.74 0-55.369-28.055-55.369-28.055-110.74 0-55.37 28.053-55.37 28.053-110.74s-28.055-55.372-28.055-110.74m-77.135-1e-3c0 55.371 28.055 55.371 28.055 110.74 0 55.373-28.053 55.373-28.053 110.74 0 55.371 28.054 55.371 28.054 110.74 0 55.373-28.052 55.373-28.052 110.74 0 18.584 3.162 30.928 7.361 41.225" fill="none" stroke="#000" stroke-width="3"/>
<g fill="none" stroke="#000" stroke-width="3">
<line x1="1.5" x2="601.5" y1="251.19" y2="251.19"/>
<line x1="1.5" x2="601.5" y1="188.77" y2="188.77"/>
<line x1="1.5" x2="601.5" y1="126.34" y2="126.34"/>
<line x1="1.5" x2="601.5" y1="63.922" y2="63.922"/>
<line x1="121.5" x2="121.5" y1="251.19" y2="188.77"/>
<line x1="241.5" x2="241.5" y1="188.77" y2="251.19"/>
<line x1="361.5" x2="361.5" y1="188.77" y2="251.19"/>
<line x1="481.5" x2="481.5" y1="188.77" y2="251.19"/>
<line x1="61.5" x2="61.5" y1="188.77" y2="126.34"/>
<line x1="181.5" x2="181.5" y1="126.34" y2="188.77"/>
<line x1="301.5" x2="301.5" y1="126.34" y2="188.77"/>
<line x1="421.5" x2="421.5" y1="126.34" y2="188.77"/>
<line x1="541.5" x2="541.5" y1="126.34" y2="188.77"/>
<line x1="121.5" x2="121.5" y1="126.34" y2="63.922"/>
<line x1="241.5" x2="241.5" y1="63.922" y2="126.34"/>
<line x1="361.5" x2="361.5" y1="63.922" y2="126.34"/>
<line x1="481.5" x2="481.5" y1="63.922" y2="126.34"/>
<line x1="61.5" x2="61.5" y1="63.922" y2="1.5"/>
<line x1="181.5" x2="181.5" y1="1.5" y2="63.922"/>
<line x1="301.5" x2="301.5" y1="1.5" y2="63.922"/>
<line x1="421.5" x2="421.5" y1="1.5" y2="63.922"/>
<line x1="541.5" x2="541.5" y1="1.5" y2="63.922"/>
</g>
</g>
<g>
<path d="m1.5 1.5v458.87c0 166.31 134.31 301.13 300 301.13 165.69 0 300-134.82 300-301.13v-458.87h-600z" fill="url(#a)"/>
<path d="m1.5 1.5v458.87c0 166.31 134.31 301.13 300 301.13 165.69 0 300-134.82 300-301.13v-458.87h-600z" fill="none" stroke="#000" stroke-width="3"/>
</g>
</svg>
